svgs/duotone/warehouse-full.svg

<svg xmlns="http://www.w3.org/2000/svg" viewBox="0 0 640 512"><!--! Font Awesome Pro 6.4.2 by @fontawesome - https://fontawesome.com License - https://fontawesome.com/license (Commercial License) Copyright 2023 Fonticons, Inc. --><path class="fa-primary" style="fill:var(--fa-primary-color,inherit);opacity:var(--fa-primary-opacity,1);" d="M0 171.3V488c0 13.3 10.7 24 24 24H72c13.3 0 24-10.7 24-24V224c0-17.7 14.3-32 32-32H512c17.7 0 32 14.3 32 32V488c0 13.3 10.7 24 24 24h48c13.3 0 24-10.7 24-24V171.3c0-26.2-15.9-49.7-40.2-59.4L331.9 4.8c-7.6-3.1-16.1-3.1-23.8 0L40.2 111.9C15.9 121.6 0 145.2 0 171.3z"/><path class="fa-secondary" style="fill:var(--fa-secondary-color,inherit);opacity:var(--fa-secondary-opacity,.4);" d="M128 248c0-13.3 10.7-24 24-24H296c13.3 0 24 10.7 24 24v80c0 13.3-10.7 24-24 24H152c-13.3 0-24-10.7-24-24V248zM352 408c0-13.3 10.7-24 24-24H488c13.3 0 24 10.7 24 24v80c0 13.3-10.7 24-24 24H376c-13.3 0-24-10.7-24-24V408zM152 384H296c13.3 0 24 10.7 24 24v80c0 13.3-10.7 24-24 24H152c-13.3 0-24-10.7-24-24V408c0-13.3 10.7-24 24-24z"/></svg>

<svg xmlns="http://www.w3.org/2000/svg" viewBox="0 0 640 512"><!--! Font Awesome Pro 6.1.1 by @fontawesome - https://fontawesome.com License - https://fontawesome.com/license (Commercial License) Copyright 2022 Fonticons, Inc. --><defs><style>.fa-secondary{opacity:.4}</style></defs><path class="fa-primary" d="M40.23 111.9L308.1 4.753C315.7 1.702 324.3 1.702 331.9 4.753L599.8 111.9C624.1 121.6 640 145.2 640 171.3V488C640 501.3 629.3 512 616 512H568C554.7 512 544 501.3 544 488V223.1C544 206.3 529.7 191.1 512 191.1H128C110.3 191.1 96 206.3 96 223.1V488C96 501.3 85.25 512 72 512H24C10.75 512 0 501.3 0 488V171.3C0 145.2 15.93 121.6 40.23 111.9z"/><path class="fa-secondary" d="M128 248C128 234.7 138.7 224 152 224H296C309.3 224 320 234.7 320 248V328C320 341.3 309.3 352 296 352H152C138.7 352 128 341.3 128 328V248zM352 408C352 394.7 362.7 384 376 384H488C501.3 384 512 394.7 512 408V488C512 501.3 501.3 512 488 512H376C362.7 512 352 501.3 352 488V408zM296 384C309.3 384 320 394.7 320 408V488C320 501.3 309.3 512 296 512H152C138.7 512 128 501.3 128 488V408C128 394.7 138.7 384 152 384H296z"/></svg>
